lib/preview/nrk-logo-preview-nrk-sami-radio.svg

<svg width="122" height="14" viewBox="0 0 122 14" fill="none" xmlns="http://www.w3.org/2000/svg">
<path d="M-3.8147e-05 12.9966V0.997672H3.93715V12.9966H-3.8147e-05ZM9.29377 2.90736L11.558 12.9966H7.24913L4.54545 0.997672H6.96214C7.51631 0.99048 8.05403 1.18583 8.47446 1.54697C8.89558 1.89296 9.18491 2.37328 9.29377 2.90736ZM12.1495 12.9966V0.997672H16.0867V12.9966H12.1495ZM19.0604 5.56068C18.6362 5.56482 18.2187 5.45381 17.8525 5.23955C17.4912 5.0307 17.1911 4.73054 16.9822 4.36918C16.7677 4.00291 16.6567 3.58534 16.6609 3.1609C16.6561 2.73904 16.7672 2.32396 16.9822 1.96101C17.1933 1.60357 17.4931 1.30668 17.8525 1.0991C18.2188 0.885084 18.6362 0.774097 19.0604 0.777966C19.4822 0.773424 19.8971 0.884511 20.2602 1.0991C20.616 1.30849 20.9126 1.60514 21.122 1.96101C21.3368 2.32406 21.4479 2.73908 21.4433 3.1609C21.4472 3.58531 21.3362 4.00281 21.122 4.36918C20.9148 4.72896 20.6179 5.02886 20.2602 5.23955C19.8971 5.45456 19.4818 5.56567 19.0599 5.56068H19.0604ZM22.0516 12.9966V0.997672H25.9891V12.9966H22.0516ZM30.9737 7.55482C30.9848 7.56646 31.0692 7.70447 31.2271 7.96885C31.385 8.23324 31.5906 8.57127 31.8439 8.98287C32.0974 9.39429 32.3648 9.83084 32.6463 10.2926C32.9277 10.7543 33.1926 11.1909 33.4408 11.6024C33.6881 12.0138 33.9697 12.4785 34.2857 12.9966H29.9598C29.6892 12.5572 29.4441 12.16 29.2244 11.8051C29.0048 11.4503 28.7713 11.0672 28.5238 10.6559C28.2758 10.2451 28.0306 9.84512 27.7882 9.45605C27.5458 9.06698 27.3375 8.7262 27.1632 8.43364C26.9882 8.1409 26.867 7.94371 26.7996 7.84212C26.6325 7.59003 26.5336 7.29888 26.5126 6.99713C26.5294 6.70752 26.6226 6.42756 26.7827 6.18569C26.8503 6.07303 26.9743 5.87301 27.1545 5.58571C27.3347 5.29842 27.546 4.95764 27.7882 4.56331C28.0304 4.16898 28.2756 3.76619 28.5238 3.35496C28.772 2.94373 29.0055 2.55782 29.2244 2.19729C29.4445 1.83713 29.6896 1.43717 29.9598 0.997397H34.2857L30.9396 6.45608C30.836 6.61815 30.7777 6.80493 30.7706 6.99713C30.7817 7.1989 30.8522 7.3929 30.9731 7.55482H30.9737Z" fill="white"/>
<path d="M46.2872 7.42815C46.039 7.17508 45.7508 6.9646 45.4342 6.80515C45.1023 6.6372 44.7571 6.49723 44.402 6.38669C44.0378 6.2729 43.6625 6.17618 43.2759 6.09653C42.9798 6.02844 42.704 5.96026 42.4485 5.89199C42.2136 5.83137 41.9851 5.7484 41.766 5.64421C41.5777 5.555 41.4026 5.44012 41.2457 5.30284C41.098 5.17274 40.9838 5.00889 40.913 4.82521C40.8341 4.60932 40.7965 4.38052 40.8021 4.15072C40.7981 3.91287 40.8356 3.67614 40.913 3.4512C40.9827 3.25242 41.0999 3.07364 41.2542 2.93033C41.414 2.78423 41.5951 2.66336 41.7913 2.57189C42.0163 2.46957 42.2549 2.40057 42.4997 2.36707C42.7907 2.32582 43.0844 2.30595 43.3783 2.30762C43.6462 2.308 43.9138 2.32214 44.1802 2.35C44.4496 2.37814 44.7173 2.42097 44.9821 2.4783C45.2392 2.53389 45.4928 2.60514 45.7413 2.69166C45.974 2.77178 46.1994 2.87161 46.4152 2.99007L46.654 1.48833C46.4115 1.36166 46.1572 1.25877 45.8948 1.1811C45.6275 1.10145 45.3574 1.03308 45.0844 0.975994C44.8082 0.918858 44.5291 0.876223 44.2484 0.848265C43.9641 0.819817 43.674 0.805499 43.3783 0.805309C42.775 0.798695 42.1732 0.867501 41.5869 1.01013C41.0875 1.13058 40.6157 1.345 40.1964 1.64195C39.8101 1.9193 39.4992 2.28884 39.2919 2.71697C39.0712 3.19832 38.9634 3.72374 38.9766 4.25313C38.967 4.66291 39.0334 5.07091 39.1725 5.45646C39.2951 5.77949 39.4841 6.07322 39.7272 6.3187C39.9677 6.55897 40.244 6.7605 40.5462 6.9161C40.8664 7.08104 41.2003 7.21819 41.544 7.32602C41.9026 7.43981 42.2694 7.53653 42.6444 7.61619C42.9519 7.68427 43.2362 7.75539 43.4975 7.82954C43.7409 7.89658 43.978 7.98511 44.2058 8.0941C44.4015 8.18647 44.5825 8.30725 44.7429 8.45254C44.8954 8.59574 45.0149 8.77049 45.093 8.96459C45.1834 9.19844 45.2269 9.44785 45.2209 9.69854C45.2254 9.9651 45.185 10.2305 45.1015 10.4837C45.0266 10.7027 44.9108 10.9054 44.7603 11.0811C44.6088 11.254 44.4228 11.3934 44.2143 11.4902C43.9786 11.5987 43.7287 11.6735 43.4721 11.7123C43.1589 11.7604 42.8422 11.7832 42.5253 11.7806C42.2172 11.7798 41.9095 11.7599 41.604 11.7209C41.2851 11.681 40.9666 11.627 40.6485 11.5587C40.3304 11.4904 40.0204 11.4078 39.7184 11.3109C39.4172 11.2148 39.1301 11.1153 38.8571 11.0125L39.0786 12.7023C39.3695 12.811 39.6657 12.9049 39.9661 12.9836C40.2387 13.0552 40.5149 13.1122 40.7936 13.1543C41.0605 13.1942 41.3278 13.2254 41.5954 13.2482C41.8631 13.271 42.1332 13.2823 42.4058 13.2823C43.0165 13.2861 43.6258 13.2232 44.2228 13.0946C44.7515 12.9838 45.2548 12.7754 45.7071 12.4801C46.1292 12.2007 46.4703 11.8151 46.6964 11.3621C46.9458 10.8257 47.0657 10.2381 47.0464 9.64676C47.0557 9.2062 46.9893 8.76731 46.85 8.34928C46.7313 8.00499 46.5393 7.69089 46.2872 7.42815Z" fill="white"/>
<path d="M56.4983 12.0193C56.3736 12.0308 56.2479 12.012 56.1321 11.9644C56.0162 11.9169 55.9136 11.842 55.8329 11.7462C55.6747 11.4728 55.6088 11.1556 55.6452 10.8419L55.6793 7.32547C55.6831 6.95686 55.6372 6.58943 55.5428 6.23309C55.46 5.92058 55.3212 5.62566 55.1334 5.3626C54.9436 5.1053 54.7025 4.89024 54.4253 4.73106C54.1033 4.54822 53.7552 4.41583 53.3931 4.33849C52.9504 4.2428 52.4983 4.197 52.0453 4.20194C51.6859 4.20178 51.3269 4.22459 50.9705 4.27022C50.6337 4.31261 50.3002 4.3782 49.9724 4.4665C49.6684 4.549 49.3694 4.64873 49.0767 4.7652L48.872 6.21602C49.1563 6.11361 49.4265 6.02827 49.6826 5.95999C49.9387 5.89172 50.186 5.83482 50.4245 5.78931C50.6585 5.74457 50.8949 5.71323 51.1325 5.69543C51.3655 5.67836 51.5958 5.66983 51.8235 5.66983C52.1714 5.6625 52.5187 5.7027 52.8557 5.78931C53.1016 5.85077 53.3278 5.97416 53.5126 6.14775C53.6771 6.31653 53.7948 6.52541 53.8538 6.75368C53.9266 7.03517 53.961 7.3252 53.9562 7.61592L53.9542 8.04263L51.96 8.17747C51.2779 8.19659 50.6059 8.34727 49.9809 8.62125C49.5133 8.82607 49.1095 9.15333 48.8122 9.56855C48.5601 9.9381 48.4262 10.3756 48.4284 10.8231C48.4252 11.2429 48.5279 11.6568 48.7269 12.0264C48.9357 12.4061 49.2497 12.7173 49.6312 12.9225C50.0966 13.1647 50.6168 13.2823 51.1411 13.2639C51.6323 13.2752 52.1214 13.1941 52.5827 13.0249C52.9817 12.8689 53.3467 12.637 53.6576 12.3422C53.7756 12.2289 53.8876 12.1096 53.9931 11.9846C54.0264 12.1613 54.0889 12.3313 54.1779 12.4875C54.3301 12.7488 54.5639 12.9527 54.8433 13.0679C55.1523 13.192 55.4829 13.2529 55.8158 13.2471C55.9182 13.2471 56.0177 13.2439 56.1144 13.2383C56.2093 13.2328 56.3036 13.2185 56.3959 13.1956C56.4869 13.1728 56.5691 13.1529 56.6433 13.1359C56.7101 13.1209 56.7757 13.101 56.8395 13.0761L57.0272 11.9325C56.933 11.9649 56.8358 11.9879 56.7371 12.0011C56.6579 12.0116 56.5781 12.0172 56.4983 12.0179M53.6576 11.2498C53.4727 11.3961 53.2724 11.522 53.0605 11.6253C52.8493 11.728 52.6258 11.8027 52.3954 11.8475C52.1563 11.8934 51.9134 11.9162 51.67 11.9155C51.3919 11.9234 51.1154 11.871 50.8596 11.7618C50.6514 11.6715 50.4758 11.5198 50.3563 11.3269C50.2381 11.1222 50.1791 10.8887 50.1857 10.6524C50.1692 10.3678 50.2472 10.0858 50.4075 9.85017C50.5932 9.63329 50.8449 9.48338 51.124 9.42346C51.56 9.32094 52.0074 9.27514 52.4551 9.2872H53.9488L53.9411 10.981C53.8542 11.0786 53.7591 11.1685 53.6567 11.2498" fill="white"/>
<path d="M54.7407 0.139648H52.8981L51.4479 3.1949H52.7787L54.7407 0.139648Z" fill="white"/>
<path d="M70.4363 4.56037C69.9711 4.30764 69.4469 4.1839 68.9179 4.20193C68.4587 4.20071 68.0028 4.27866 67.57 4.43236C67.1306 4.58986 66.7168 4.81128 66.3419 5.08949C66.1292 5.2469 65.9269 5.41794 65.7363 5.60155C65.5614 5.17423 65.2531 4.81497 64.8573 4.57744C64.3865 4.32345 63.8564 4.19972 63.3218 4.219C62.8657 4.2192 62.4128 4.29712 61.9828 4.44943C61.5413 4.60474 61.1246 4.82321 60.7456 5.09803C60.6231 5.1865 60.5042 5.28237 60.3873 5.3825V4.219L58.6471 4.47503V13.0946H60.3873V6.60233C60.5924 6.46803 60.8061 6.34753 61.0271 6.24161C61.2978 6.11372 61.5808 6.01364 61.8716 5.94292C62.1397 5.87664 62.4147 5.84227 62.6909 5.84051C62.9442 5.83291 63.1965 5.87645 63.4327 5.96852C63.6283 6.05141 63.801 6.18021 63.9363 6.34402C64.0844 6.53434 64.1865 6.75632 64.2346 6.99262C64.3012 7.29811 64.3328 7.61021 64.3287 7.92286V13.0946H66.069V7.56442C66.07 7.23792 66.048 6.91177 66.003 6.58839C66.2002 6.45867 66.4045 6.34004 66.6149 6.23308C66.8808 6.09908 67.1612 5.996 67.4506 5.92585C67.7243 5.85887 68.0049 5.8245 68.2866 5.82344C68.5373 5.81737 68.7867 5.86088 69.0205 5.95145C69.2194 6.03259 69.3952 6.16157 69.5324 6.32696C69.6807 6.51713 69.7829 6.73916 69.8309 6.97556C69.8974 7.28106 69.9289 7.59315 69.9248 7.90579V13.0946H71.665V7.54735C71.6869 6.90184 71.5826 6.25825 71.3579 5.65275C71.1809 5.19615 70.8564 4.81171 70.4363 4.56037Z" fill="white"/>
<path d="M74.2418 13.0949H75.982V4.21929L74.2418 4.47532V13.0949Z" fill="white"/>
<path d="M75.7338 0.643169C75.5568 0.534927 75.3529 0.478733 75.1455 0.481018C74.9353 0.4794 74.7288 0.535486 74.5483 0.643169C74.3704 0.747349 74.2211 0.893941 74.1135 1.06988C74.0051 1.24698 73.9489 1.45108 73.9512 1.65874C73.9509 1.8671 74.0061 2.07179 74.111 2.25177C74.2159 2.43175 74.3669 2.58053 74.5483 2.68285C74.7306 2.78531 74.9364 2.83827 75.1455 2.83646C75.3518 2.83892 75.555 2.78587 75.7338 2.68285C75.9094 2.58127 76.054 2.43375 76.1521 2.25614C76.2544 2.0738 76.3074 1.86786 76.3056 1.65874C76.3079 1.45225 76.2549 1.24891 76.1521 1.06988C76.0506 0.894812 75.9068 0.748077 75.7338 0.643169Z" fill="white"/>
<path d="M86.2346 4.32996C85.9155 4.41551 85.6108 4.5478 85.3303 4.72253C85.0393 4.90425 84.7702 5.11903 84.5285 5.3626C84.4881 5.403 84.4491 5.44794 84.409 5.49033V4.21901L82.6688 4.47504V13.0946H84.409V6.64615C84.5413 6.55511 84.6746 6.46977 84.81 6.39524C84.9807 6.30117 85.1575 6.21849 85.3392 6.14775C85.5153 6.07947 85.6943 6.01973 85.8763 5.96853C86.0636 5.91644 86.2547 5.87934 86.4478 5.85758C86.6546 5.83489 86.8629 5.82918 87.0706 5.84052L87.2753 4.23608C86.9256 4.21095 86.5741 4.24265 86.2346 4.32996Z" fill="white"/>
<path d="M96.0279 12.0193C95.9032 12.0308 95.7776 12.012 95.6618 11.9644C95.5459 11.9169 95.4433 11.842 95.3626 11.7462C95.2044 11.4728 95.1385 11.1556 95.1749 10.8419L95.209 7.32547C95.2128 6.95686 95.1669 6.58943 95.0725 6.23309C94.9897 5.92058 94.8509 5.62567 94.6631 5.3626C94.4733 5.1053 94.2322 4.89024 93.955 4.73106C93.633 4.54822 93.2849 4.41583 92.9228 4.33849C92.4801 4.2428 92.028 4.197 91.575 4.20194C91.2156 4.20178 90.8566 4.22459 90.5002 4.27022C90.1634 4.31261 89.8299 4.3782 89.5021 4.4665C89.1981 4.549 88.899 4.64873 88.6064 4.7652L88.4016 6.21602C88.686 6.11361 88.9562 6.02827 89.2123 5.95999C89.4684 5.89172 89.7157 5.83482 89.9542 5.78931C90.1882 5.74457 90.4246 5.71323 90.6622 5.69543C90.8952 5.67836 91.1255 5.66983 91.3532 5.66983C91.7011 5.6625 92.0484 5.7027 92.3854 5.78931C92.6313 5.85077 92.8574 5.97416 93.0423 6.14775C93.2068 6.31653 93.3245 6.5254 93.3835 6.75368C93.4563 7.03517 93.4907 7.3252 93.4858 7.61592L93.4839 8.04263L91.4897 8.17747C90.8076 8.19659 90.1356 8.34727 89.5106 8.62125C89.0429 8.82607 88.6392 9.15333 88.3419 9.56855C88.0898 9.9381 87.9559 10.3756 87.9581 10.8231C87.9549 11.2429 88.0576 11.6568 88.2566 12.0264C88.4654 12.4061 88.7794 12.7173 89.1609 12.9225C89.6263 13.1647 90.1465 13.2823 90.6708 13.2639C91.162 13.2752 91.6511 13.1941 92.1124 13.0249C92.5114 12.8689 92.8764 12.637 93.1873 12.3422C93.3053 12.2289 93.4173 12.1096 93.5228 11.9846C93.5561 12.1613 93.6186 12.3313 93.7076 12.4875C93.8598 12.7488 94.0936 12.9527 94.373 13.0679C94.682 13.192 95.0126 13.2529 95.3455 13.2471C95.4479 13.2471 95.5474 13.2439 95.6441 13.2383C95.739 13.2328 95.8333 13.2185 95.9256 13.1956C96.0166 13.1728 96.0987 13.1529 96.173 13.1359C96.2398 13.1209 96.3054 13.101 96.3692 13.0761L96.5568 11.9325C96.4627 11.9649 96.3655 11.9879 96.2668 12.0011C96.1876 12.0116 96.1078 12.0172 96.0279 12.0179M93.1873 11.2498C93.0023 11.3961 92.8021 11.522 92.5901 11.6253C92.379 11.728 92.1554 11.8027 91.925 11.8475C91.686 11.8934 91.4431 11.9162 91.1997 11.9155C90.9216 11.9234 90.6451 11.871 90.3893 11.7618C90.1811 11.6715 90.0055 11.5198 89.886 11.3269C89.7678 11.1222 89.7087 10.8887 89.7153 10.6524C89.6989 10.3678 89.7769 10.0858 89.9371 9.85017C90.1229 9.63329 90.3746 9.48338 90.6537 9.42346C91.0897 9.32094 91.5371 9.27514 91.9847 9.2872H93.4785L93.4708 10.981C93.3839 11.0786 93.2888 11.1685 93.1864 11.2498" fill="white"/>
<path d="M104.099 4.61641C104.081 4.60959 104.065 4.60134 104.048 4.59479C103.729 4.47441 103.401 4.38013 103.066 4.31288C102.676 4.23608 102.279 4.199 101.881 4.20222C101.123 4.19639 100.377 4.39754 99.725 4.78402C99.0727 5.17049 98.5381 5.72765 98.1788 6.39551C97.7588 7.19707 97.5531 8.09363 97.5816 8.99817C97.562 9.77915 97.7165 10.5547 98.0338 11.2686C98.3106 11.878 98.7618 12.3917 99.3304 12.7447C99.942 13.1048 100.643 13.2852 101.352 13.2653C101.787 13.2678 102.221 13.2103 102.64 13.0946C103.058 12.9744 103.457 12.7963 103.826 12.5655C103.954 12.4864 104.082 12.3982 104.209 12.3055L104.423 13.0946H105.839V0.224987L104.099 0.463945L104.099 4.61641ZM103.186 11.6355C102.797 11.7887 102.384 11.8724 101.966 11.883C101.479 11.8972 100.996 11.7823 100.567 11.5499C100.168 11.3141 99.8565 10.9545 99.6799 10.5258C99.4585 9.97586 99.3539 9.38588 99.3728 8.79335C99.3528 8.18626 99.4694 7.58244 99.714 7.02648C99.9223 6.57545 100.265 6.19994 100.695 5.95145C101.163 5.69646 101.69 5.56976 102.222 5.58419C102.496 5.5836 102.77 5.60357 103.041 5.64393C103.31 5.6856 103.575 5.74848 103.834 5.83197C103.918 5.85843 104.009 5.8937 104.099 5.92613V11.1869C103.809 11.3637 103.503 11.5139 103.186 11.6355Z" fill="white"/>
<path d="M109.992 0.643169C109.815 0.534927 109.611 0.478733 109.404 0.481018C109.194 0.4794 108.987 0.535486 108.807 0.643169C108.629 0.747339 108.479 0.893934 108.372 1.06988C108.263 1.24698 108.207 1.45108 108.21 1.65874C108.209 1.8671 108.264 2.07179 108.369 2.25177C108.474 2.43175 108.625 2.58053 108.807 2.68285C108.989 2.78531 109.195 2.83827 109.404 2.83646C109.61 2.83892 109.813 2.78587 109.992 2.68285C110.168 2.58127 110.312 2.43375 110.41 2.25614C110.513 2.0738 110.566 1.86786 110.564 1.65874C110.566 1.45225 110.513 1.24891 110.41 1.06988C110.309 0.894812 110.165 0.748077 109.992 0.643169Z" fill="white"/>
<path d="M108.499 13.0949H110.24V4.21929L108.499 4.47532V13.0949Z" fill="white"/>
<path d="M120.613 6.29282C120.273 5.64012 119.747 5.10266 119.102 4.74813C118.382 4.38611 117.586 4.199 116.78 4.20196C115.974 4.20493 115.18 4.39789 114.462 4.7652C113.803 5.13433 113.264 5.68536 112.909 6.35256C112.524 7.10114 112.334 7.93465 112.355 8.77628C112.333 9.61133 112.512 10.4395 112.875 11.1915C113.202 11.8479 113.723 12.3873 114.368 12.7362C115.062 13.1001 115.837 13.2821 116.62 13.2653C117.44 13.2816 118.251 13.0877 118.975 12.702C119.651 12.3331 120.205 11.7757 120.57 11.0976C120.966 10.3401 121.163 9.49426 121.141 8.63973C121.161 7.82584 120.979 7.01973 120.613 6.29282ZM119 10.4661C118.809 10.9097 118.484 11.2827 118.071 11.5328C117.655 11.7705 117.184 11.8914 116.706 11.8827C116.237 11.8944 115.775 11.7699 115.375 11.5243C114.98 11.2614 114.671 10.8872 114.488 10.449C114.256 9.88684 114.146 9.2818 114.165 8.67387C114.144 8.08233 114.255 7.49364 114.489 6.94996C114.68 6.52257 114.999 6.16484 115.402 5.92585C115.832 5.68873 116.318 5.57088 116.809 5.58448C117.193 5.57497 117.574 5.64772 117.927 5.79784C118.236 5.93744 118.506 6.15148 118.712 6.42084C118.932 6.71359 119.091 7.04722 119.181 7.40227C119.287 7.81762 119.339 8.24512 119.335 8.67387C119.354 9.28832 119.241 9.89976 119.002 10.4661" fill="white"/>
</svg>

<svg xmlns="http://www.w3.org/2000/svg" viewBox="0 0 122 14"><path fill="#fff" d="M0 12.997v-12h3.937v12H0Zm9.294-10.09 2.264 10.09H7.249l-2.704-12h2.417a2.276 2.276 0 0 1 1.512.55c.422.346.71.826.82 1.36Zm2.855 10.09v-12h3.938v12h-3.938ZM19.06 5.56a2.383 2.383 0 0 1-2.4-2.4 2.303 2.303 0 0 1 .322-1.2 2.412 2.412 0 0 1 3.278-.862c.356.21.653.506.862.862.215.363.326.778.321 1.2A2.4 2.4 0 0 1 20.26 5.24a2.303 2.303 0 0 1-1.2.32Zm2.992 7.436v-12h3.937v12h-3.937Zm8.922-5.442a9.3 9.3 0 0 1 .253.414c.158.264.364.602.617 1.014a324.42 324.42 0 0 1 1.597 2.62c.247.41.529.876.845 1.394H29.96c-.27-.44-.516-.837-.736-1.192-.22-.355-.453-.738-.7-1.15-.248-.41-.493-.81-.736-1.199-.242-.389-.45-.73-.625-1.022-.175-.293-.296-.49-.363-.592a1.75 1.75 0 0 1-.287-.845c.016-.29.11-.57.27-.811.067-.113.191-.313.371-.6a182.106 182.106 0 0 0 1.37-2.23l.7-1.159.736-1.2h4.326l-3.346 5.46a1.078 1.078 0 0 0-.17.54c.012.202.082.396.203.558ZM46.287 7.428a3.23 3.23 0 0 0-.853-.623 6.69 6.69 0 0 0-1.032-.418 11.67 11.67 0 0 0-1.126-.29 24.387 24.387 0 0 1-.828-.205 3.8 3.8 0 0 1-.682-.248 2.259 2.259 0 0 1-.52-.341 1.223 1.223 0 0 1-.333-.478 1.835 1.835 0 0 1-.11-.674 2.044 2.044 0 0 1 .11-.7c.07-.199.187-.377.341-.52.16-.147.341-.268.537-.36.225-.101.464-.17.709-.204.29-.041.584-.061.878-.06a7.815 7.815 0 0 1 1.604.171c.257.056.51.127.76.214.232.08.457.18.673.298l.239-1.502a4.238 4.238 0 0 0-.76-.307c-.267-.08-.537-.148-.81-.205a8.08 8.08 0 0 0-.836-.128 8.793 8.793 0 0 0-.87-.043 7.243 7.243 0 0 0-1.791.205c-.5.12-.971.335-1.39.632a2.855 2.855 0 0 0-.905 1.075 3.478 3.478 0 0 0-.315 1.536c-.01.41.056.818.196 1.203.122.323.311.617.554.863.24.24.517.442.82.597.32.165.653.302.997.41.359.114.725.21 1.1.29.308.068.592.14.854.214.243.067.48.155.708.264.195.092.377.213.537.359.152.143.272.317.35.512.09.233.134.483.128.734.004.266-.036.531-.12.785-.074.219-.19.421-.34.597a1.65 1.65 0 0 1-.547.41 2.763 2.763 0 0 1-.742.221c-.313.048-.63.071-.947.069-.308-.001-.615-.021-.921-.06-.319-.04-.637-.094-.956-.162a9.723 9.723 0 0 1-.93-.248 17.792 17.792 0 0 1-.86-.299l.22 1.69c.291.109.588.203.888.282.273.071.549.128.828.17.267.04.534.071.801.094.268.023.538.034.81.034a8.38 8.38 0 0 0 1.818-.187 4.345 4.345 0 0 0 1.484-.615c.422-.28.763-.665.99-1.118.249-.536.369-1.124.35-1.715.009-.44-.058-.88-.197-1.298a2.514 2.514 0 0 0-.563-.92ZM56.498 12.02a.776.776 0 0 1-.665-.274 1.468 1.468 0 0 1-.188-.904l.034-3.517a4.1 4.1 0 0 0-.136-1.092 2.68 2.68 0 0 0-.41-.87 2.308 2.308 0 0 0-.708-.632 3.623 3.623 0 0 0-1.032-.393 6.066 6.066 0 0 0-1.348-.136c-.36 0-.718.023-1.075.068-.336.043-.67.108-.998.197a8.307 8.307 0 0 0-.895.298l-.205 1.451a10.009 10.009 0 0 1 1.553-.427 6.26 6.26 0 0 1 .708-.094c.232-.017.463-.025.69-.025.348-.008.696.033 1.033.12.246.06.472.184.657.358.164.169.282.377.34.606.074.281.108.571.103.862l-.002.427-1.994.134a5.3 5.3 0 0 0-1.98.444 2.838 2.838 0 0 0-1.168.948c-.252.37-.386.807-.384 1.254-.003.42.1.834.299 1.203.209.38.523.691.904.896.466.243.986.36 1.51.342.491.011.98-.07 1.442-.24a3.319 3.319 0 0 0 1.075-.682c.118-.113.23-.232.335-.357.033.176.096.346.185.503.152.26.386.465.665.58.31.124.64.185.973.18.102 0 .202-.004.298-.01.095-.005.19-.02.282-.042.09-.023.173-.043.247-.06.067-.015.133-.035.197-.06l.187-1.144a1.506 1.506 0 0 1-.29.07c-.08.01-.159.015-.239.016m-2.84-.768a3.276 3.276 0 0 1-.598.375 2.698 2.698 0 0 1-.665.223 3.79 3.79 0 0 1-.725.067 1.925 1.925 0 0 1-.81-.153 1.113 1.113 0 0 1-.504-.435 1.277 1.277 0 0 1-.17-.675 1.293 1.293 0 0 1 .221-.802c.186-.217.438-.367.717-.427a5.203 5.203 0 0 1 1.331-.136h1.494l-.008 1.694a2.274 2.274 0 0 1-.284.269M54.74.14h-1.842l-1.45 3.055h1.33L54.742.14ZM70.436 4.56a2.969 2.969 0 0 0-1.518-.358 3.996 3.996 0 0 0-1.348.23 4.75 4.75 0 0 0-1.228.657 6.123 6.123 0 0 0-.606.513 2.14 2.14 0 0 0-.879-1.025c-.47-.254-1-.377-1.535-.358-.456 0-.91.078-1.34.23a4.848 4.848 0 0 0-1.595.934V4.219l-1.74.256v8.62h1.74V6.602c.205-.134.42-.254.64-.36.27-.128.554-.228.845-.3.268-.065.543-.1.819-.101.253-.008.505.035.742.128.195.082.368.211.503.375.148.19.25.412.299.649.066.305.098.617.094.93v5.172h1.74v-5.53a6.927 6.927 0 0 0-.066-.977c.197-.13.401-.248.612-.355.266-.134.546-.237.836-.307.273-.067.554-.102.836-.103.25-.006.5.038.733.128.2.082.375.21.512.376.149.19.25.412.299.649.066.305.098.617.094.93v5.189h1.74V7.547a4.962 4.962 0 0 0-.307-1.894 2.2 2.2 0 0 0-.922-1.093ZM74.242 13.095h1.74V4.219l-1.74.256v8.62ZM75.734.643a1.104 1.104 0 0 0-.588-.162 1.148 1.148 0 0 0-.598.162 1.25 1.25 0 0 0-.434.427 1.104 1.104 0 0 0-.163.589 1.174 1.174 0 0 0 1.195 1.177c.206.003.409-.05.588-.153.175-.102.32-.25.418-.427a1.2 1.2 0 0 0 .154-.597c.002-.207-.051-.41-.154-.59a1.207 1.207 0 0 0-.418-.426ZM86.235 4.33c-.32.086-.624.218-.905.393a4.45 4.45 0 0 0-.802.64c-.04.04-.079.085-.119.127V4.22l-1.74.256v8.62h1.74V6.646a4.416 4.416 0 0 1 .93-.498c.176-.069.355-.128.537-.18a3.664 3.664 0 0 1 1.195-.127l.204-1.605a3.245 3.245 0 0 0-1.04.094ZM96.028 12.02a.776.776 0 0 1-.665-.274 1.468 1.468 0 0 1-.188-.904l.034-3.517a4.1 4.1 0 0 0-.136-1.092 2.68 2.68 0 0 0-.41-.87 2.308 2.308 0 0 0-.708-.632 3.623 3.623 0 0 0-1.032-.393 6.066 6.066 0 0 0-1.348-.136c-.36 0-.718.023-1.075.068-.337.043-.67.108-.998.197a8.3 8.3 0 0 0-.896.298l-.204 1.451a10.023 10.023 0 0 1 1.552-.427 6.26 6.26 0 0 1 .708-.094c.233-.017.463-.025.691-.025.348-.008.695.033 1.032.12.246.06.472.184.657.358.165.169.282.377.341.606.073.281.108.571.103.862l-.002.427-1.994.134a5.3 5.3 0 0 0-1.98.444 2.837 2.837 0 0 0-1.168.948c-.252.37-.386.807-.384 1.254-.003.42.1.834.299 1.203.208.38.522.691.904.896.465.243.986.36 1.51.342.491.011.98-.07 1.441-.24a3.319 3.319 0 0 0 1.075-.682c.118-.113.23-.232.336-.357.033.176.096.346.185.503.152.26.386.465.665.58.309.124.64.185.972.18.103 0 .202-.004.3-.01.094-.005.188-.02.28-.042l.248-.06c.067-.015.132-.035.196-.06l.188-1.144a1.503 1.503 0 0 1-.29.07c-.08.01-.16.015-.24.016m-2.84-.768a3.277 3.277 0 0 1-.597.375 2.697 2.697 0 0 1-.665.223 3.788 3.788 0 0 1-.725.067 1.925 1.925 0 0 1-.81-.153 1.113 1.113 0 0 1-.504-.435 1.278 1.278 0 0 1-.17-.675 1.294 1.294 0 0 1 .221-.802c.186-.217.438-.367.717-.427a5.203 5.203 0 0 1 1.33-.136h1.495l-.008 1.694a2.274 2.274 0 0 1-.285.269M104.099 4.616c-.018-.006-.034-.015-.051-.021a5.886 5.886 0 0 0-2.167-.393 4.167 4.167 0 0 0-3.702 2.194 5.251 5.251 0 0 0-.597 2.602c-.02.781.135 1.557.452 2.27.277.61.728 1.124 1.296 1.477.612.36 1.313.54 2.022.52a4.74 4.74 0 0 0 1.288-.17 4.67 4.67 0 0 0 1.186-.53c.128-.079.256-.167.383-.26l.214.79h1.416V.225l-1.74.239v4.152Zm-.913 7.02a3.577 3.577 0 0 1-1.22.247c-.487.014-.97-.1-1.399-.333a2.134 2.134 0 0 1-.887-1.024 4.274 4.274 0 0 1-.307-1.733c-.02-.607.096-1.21.341-1.767.208-.45.551-.826.981-1.075a3.021 3.021 0 0 1 1.527-.367 5.157 5.157 0 0 1 1.612.248c.084.026.175.062.265.094v5.26c-.29.178-.596.328-.913.45ZM109.992.643a1.104 1.104 0 0 0-.588-.162 1.147 1.147 0 0 0-.597.162c-.178.104-.328.25-.435.427a1.093 1.093 0 0 0-.162.589 1.166 1.166 0 0 0 .597 1.024c.182.102.388.155.597.153.206.003.409-.05.588-.153.176-.102.32-.25.418-.427.103-.182.156-.388.154-.597a1.158 1.158 0 0 0-.154-.59 1.202 1.202 0 0 0-.418-.426ZM108.499 13.095h1.741V4.219l-1.741.256v8.62ZM120.613 6.293a3.729 3.729 0 0 0-1.511-1.545 5.128 5.128 0 0 0-4.64.017 3.94 3.94 0 0 0-1.553 1.588 5.025 5.025 0 0 0-.554 2.423 5.24 5.24 0 0 0 .52 2.415 3.56 3.56 0 0 0 1.493 1.545 4.636 4.636 0 0 0 2.252.53 4.806 4.806 0 0 0 2.355-.564 3.972 3.972 0 0 0 1.595-1.604 5.026 5.026 0 0 0 .571-2.458 4.95 4.95 0 0 0-.528-2.347ZM119 10.466a2.32 2.32 0 0 1-.929 1.067 2.653 2.653 0 0 1-1.365.35 2.427 2.427 0 0 1-1.331-.359 2.406 2.406 0 0 1-.887-1.075 4.301 4.301 0 0 1-.323-1.775c-.021-.592.09-1.18.324-1.724.191-.427.51-.785.913-1.024.43-.237.916-.355 1.407-.342.384-.009.765.064 1.118.214.309.14.579.353.785.623.22.293.379.626.469.981.106.416.158.843.154 1.272a4.27 4.27 0 0 1-.333 1.792"/></svg>
